; HEADER_BLOCK_START
; generated by Creality_Print V5.0.0.8636 on 2024-06-03 at 19:24:17
; total layer number: 155
; filament_density: 1.24
; filament_diameter: 1.75
; max_z_height: 12.52
; HEADER_BLOCK_END

; MINX = 90.35
; MINY = 94.00
; MINZ = 0.00
; MAXX = 129.65
; MAXY = 126.00
; MAXZ = 12.50

; THUMBNAIL_BLOCK_START

;
; THUMBNAIL_BLOCK_END

; THUMBNAIL_BLOCK_START

;
; THUMBNAIL_BLOCK_END

; external perimeters extrusion width = 0.42mm
; perimeters extrusion width = 0.45mm
; infill extrusion width = 0.45mm
; solid infill extrusion width = 0.42mm
; top infill extrusion width = 0.42mm
; first layer extrusion width = 0.50mm

; EXECUTABLE_BLOCK_START
M73 P0 R38
M106 S0
M106 P2 S0
;TYPE:Custom
M140 S0
M104 S0 
START_PRINT EXTRUDER_TEMP=220 BED_TEMP=50
G90
G21
M83 ; use relative distances for extrusion
; filament start gcode
M106 S0
M106 P2 S0
;LAYER_CHANGE
;Z:0.2
;HEIGHT:0.2
;BEFORE_LAYER_CHANGE
;0.2
G92 E0

G1 E-.5 F2400
;AFTER_LAYER_CHANGE
;0.2
;_SET_FAN_SPEED_CHANGING_LAYER
SET_VELOCITY_LIMIT ACCEL=500 ACCEL_TO_DECEL=250
G1 X91.696 Y92.872 F30000
G1 Z.4
G1 Z.2
G1 E.5 F2400
;TYPE:Skirt
;WIDTH:0.5
G1 F3000
G1 X93.135 Y92.172 E.0578
G1 X126.865 Y92.172 E1.21784
G1 X127.992 Y92.561 E.04307
G1 X128.693 Y94 E.0578
G1 X128.693 Y126 E1.15539
G1 X128.304 Y127.128 E.04307
G1 X126.865 Y127.828 E.0578
G1 X93.135 Y127.828 E1.21784
G1 X92.008 Y127.439 E.04307
G1 X91.307 Y126 E.0578
G1 X91.307 Y94 E1.15539
G1 X91.683 Y92.91 E.04162
G1 X92.131 Y93.092 F30000
G1 F3000
G1 X92.149 Y93.047 E.00174
G1 X93.135 Y92.629 E.03866
G1 X126.865 Y92.629 E1.21784
G1 X127.818 Y93.014 E.03712
G1 X128.236 Y94 E.03866
G1 X128.236 Y126 E1.15539
G1 X127.851 Y126.953 E.03712
G1 X126.865 Y127.371 E.03866
G1 X93.135 Y127.371 E1.21784
G1 X92.182 Y126.986 E.03712
G1 X91.764 Y126 E.03866
G1 X91.764 Y94 E1.15539
G1 X92.116 Y93.129 E.03393
G1 X92.552 Y93.351 F30000
G1 F3000
G1 X92.599 Y93.259 E.00372
G1 X93.135 Y93.086 E.02034
G1 X126.865 Y93.086 E1.21784
G1 X127.605 Y93.464 E.03002
G1 X127.779 Y94 E.02034
G1 X127.779 Y126 E1.15539
G1 X127.401 Y126.741 E.03002
G1 X126.865 Y126.914 E.02034
G1 X93.135 Y126.914 E1.21784
G1 X92.395 Y126.536 E.03002
G1 X92.221 Y126 E.02034
G1 X92.221 Y94 E1.15539
G1 X92.534 Y93.387 E.02485
G1 X92.913 Y93.765 F30000
G1 F3000
G1 X93.135 Y93.543 E.01136
G1 X126.865 Y93.543 E1.21784
G1 X127.322 Y94 E.02334
G1 X127.322 Y126 E1.15539
G1 X126.865 Y126.457 E.02334
G1 X93.135 Y126.457 E1.21784
G1 X92.678 Y126 E.02334
G1 X92.678 Y94 E1.15539
G1 X92.884 Y93.794 E.01053
; printing object 2024-06_03_17_19 LEGO Raspicam Holder.stl id:2077266330816 copy 0
G1 E-.35 F2400
;WIPE_START
G1 F3000
G1 X93.135 Y93.543 E-.05321
G1 X93.78 Y93.543 E-.09679
;WIPE_END
G1 X99.637 Y98.438 Z.6 F30000
G1 X116.093 Y112.193 Z.6
G1 Z.2
G1 E.5 F2400
;TYPE:Inner wall
G1 F3000
G1 X116.093 Y110.893 E.04694
G1 X119.907 Y110.893 E.13771
G1 X119.907 Y112.193 E.04694
G1 X121.207 Y112.193 E.04694
G1 X121.207 Y116.007 E.13771
G1 X119.907 Y116.007 E.04694
G1 X119.907 Y117.307 E.04694
G1 X116.093 Y117.307 E.13771
G1 X116.093 Y116.007 E.04694
G1 X114.793 Y116.007 E.04694
G1 X114.793 Y112.193 E.13771
G1 X116.053 Y112.193 E.04549
G1 X116.55 Y112.65 F30000
;TYPE:Outer wall
G1 F3000
G1 X116.55 Y111.35 E.04694
G1 X119.45 Y111.35 E.10471
G1 X119.45 Y112.65 E.04694
G1 X120.75 Y112.65 E.04694
G1 X120.75 Y115.55 E.10471
G1 X119.45 Y115.55 E.04694
G1 X119.45 Y116.85 E.04694
G1 X116.55 Y116.85 E.10471
G1 X116.55 Y115.55 E.04694
G1 X115.25 Y115.55 E.04694
G1 X115.25 Y112.65 E.10471
G1 X116.51 Y112.65 E.04549
G1 E-.35 F2400
;WIPE_START
G1 F3000
G1 X116.541 Y111.65 E-.15
;WIPE_END
G1 X116.093 Y104.193 Z.6 F30000
G1 Z.2
G1 E.5 F2400
;TYPE:Inner wall
G1 F3000
G1 X116.093 Y102.893 E.04694
G1 X119.907 Y102.893 E.13771
G1 X119.907 Y104.193 E.04694
G1 X121.207 Y104.193 E.04694
G1 X121.207 Y108.007 E.13771
G1 X119.907 Y108.007 E.04694
G1 X119.907 Y109.307 E.04694
G1 X116.093 Y109.307 E.13771
G1 X116.093 Y108.007 E.04694
G1 X114.793 Y108.007 E.04694
G1 X114.793 Y104.193 E.13771
G1 X116.053 Y104.193 E.04549
G1 X116.55 Y104.65 F30000
;TYPE:Outer wall
G1 F3000
G1 X116.55 Y103.35 E.04694
G1 X119.45 Y103.35 E.10471
G1 X119.45 Y104.65 E.04694
G1 X120.75 Y104.65 E.04694
G1 X120.75 Y107.55 E.10471
G1 X119.45 Y107.55 E.04694
G1 X119.45 Y108.85 E.04694
G1 X116.55 Y108.85 E.10471
G1 X116.55 Y107.55 E.04694
G1 X115.25 Y107.55 E.04694
G1 X115.25 Y104.65 E.10471
G1 X116.51 Y104.65 E.04549
G1 E-.35 F2400
;WIPE_START
G1 F3000
G1 X116.541 Y103.65 E-.15
;WIPE_END
G1 X111.109 Y102.252 Z.6 F30000
G1 Z.2
G1 E.5 F2400
;TYPE:Inner wall
G1 F3000
G1 X111.195 Y102.279 E.00327
G3 X110.929 Y109.993 I-1.196 J3.82 E.37633
G1 X110.929 Y110.207 E.00771
G3 X108.19 Y110.524 I-.938 J3.894 E.80704
G3 X109.059 Y110.201 I1.893 J3.765 E.03354
G1 X109.059 Y109.999 E.00728
G1 X108.718 Y109.893 E.01289
G3 X109.76 Y102.104 I1.275 J-3.793 E.39866
G3 X110.767 Y102.171 I.239 J3.996 E.03654
G1 X111.07 Y102.243 E.01122
G1 E-.35 F2400
;WIPE_START
G1 F3000
G1 X111.195 Y102.279 E-.01957
G1 X111.61 Y102.429 E-.0662
G1 X111.992 Y102.623 E-.06423
;WIPE_END
G1 X110.234 Y110.05 Z.6 F30000
G1 X108.512 Y117.319 Z.6
G1 Z.2
G1 E.5 F2400
;TYPE:Outer wall
G1 F3000
G1 X108.395 Y117.271 E.00457
G3 X108.058 Y111.128 I1.597 J-3.169 E.26881
G3 X109.798 Y110.559 I1.964 J3.066 E.0668
G3 X108.754 Y117.427 I.194 J3.543 E.45514
G1 X108.549 Y117.335 E.00813
G1 E-.35 F2400
;WIPE_START
G1 F3000
G1 X108.395 Y117.271 E-.02497
G1 X108.058 Y117.072 E-.05871
G1 X107.743 Y116.841 E-.05868
G1 X107.705 Y116.806 E-.00764
;WIPE_END
G1 X109.439 Y109.373 Z.6 F30000
G1 X110.996 Y102.695 Z.6
G1 Z.2
G1 E.5 F2400
G1 F3000
G1 X111.058 Y102.718 E.00236
G3 X108.058 Y103.128 I-1.066 J3.384 E.692
G3 X109.798 Y102.559 I1.964 J3.066 E.0668
G3 X110.679 Y102.621 I.194 J3.543 E.03199
G1 X110.958 Y102.686 E.01031
G1 E-.35 F2400
;WIPE_START
G1 F3000
G1 X111.058 Y102.718 E-.01578
G1 X111.426 Y102.848 E-.05863
G1 X111.775 Y103.025 E-.05868
G1 X111.87 Y103.087 E-.0169
;WIPE_END
G1 X104.271 Y103.801 Z.6 F30000
G1 X100.093 Y104.193 Z.6
G1 Z.2
G1 E.5 F2400
;TYPE:Inner wall
G1 F3000
G1 X100.093 Y102.893 E.04694
G1 X103.907 Y102.893 E.13771
G1 X103.907 Y104.193 E.04694
G1 X105.207 Y104.193 E.04694
G1 X105.207 Y108.007 E.13771
G1 X103.907 Y108.007 E.04694
G1 X103.907 Y109.307 E.04694
G1 X100.093 Y109.307 E.13771
G1 X100.093 Y108.007 E.04694
G1 X98.793 Y108.007 E.04694
G1 X98.793 Y104.193 E.13771
G1 X100.053 Y104.193 E.04549
G1 X100.55 Y104.65 F30000
;TYPE:Outer wall
G1 F3000
G1 X100.55 Y103.35 E.04694
G1 X103.45 Y103.35 E.10471
G1 X103.45 Y104.65 E.04694
G1 X104.75 Y104.65 E.04694
G1 X104.75 Y107.55 E.10471
G1 X103.45 Y107.55 E.04694
G1 X103.45 Y108.85 E.04694
G1 X100.55 Y108.85 E.10471
G1 X100.55 Y107.55 E.04694
G1 X99.25 Y107.55 E.04694
G1 X99.25 Y104.65 E.10471
G1 X100.51 Y104.65 E.04549
G1 E-.35 F2400
;WIPE_START
G1 F3000
G1 X100.541 Y103.65 E-.15
;WIPE_END
G1 X100.141 Y111.272 Z.6 F30000
G1 X100.093 Y112.193 Z.6
G1 Z.2
G1 E.5 F2400
;TYPE:Inner wall
G1 F3000
G1 X100.093 Y110.893 E.04694
G1 X103.907 Y110.893 E.13771
G1 X103.907 Y112.193 E.04694
G1 X105.207 Y112.193 E.04694
M73 P1 R38
G1 X105.207 Y116.007 E.13771
G1 X103.907 Y116.007 E.04694
G1 X103.907 Y117.307 E.04694
G1 X100.093 Y117.307 E.13771
G1 X100.093 Y116.007 E.04694
G1 X98.793 Y116.007 E.04694
G1 X98.793 Y112.193 E.13771
G1 X100.053 Y112.193 E.04549
G1 X100.55 Y112.65 F30000
;TYPE:Outer wall
G1 F3000
G1 X100.55 Y111.35 E.04694
G1 X103.45 Y111.35 E.10471
G1 X103.45 Y112.65 E.04694
G1 X104.75 Y112.65 E.04694
G1 X104.75 Y115.55 E.10471
G1 X103.45 Y115.55 E.04694
G1 X103.45 Y116.85 E.04694
G1 X100.55 Y116.85 E.10471
G1 X100.55 Y115.55 E.04694
G1 X99.25 Y115.55 E.04694
G1 X99.25 Y112.65 E.10471
G1 X100.51 Y112.65 E.04549
G1 E-.35 F2400
;WIPE_START
G1 F3000
G1 X100.541 Y111.65 E-.15
;WIPE_END
G1 X107.285 Y115.224 Z.6 F30000
G1 X126.008 Y125.143 Z.6
G1 Z.2
G1 E.5 F2400
;TYPE:Inner wall
G1 F3000
G1 X93.992 Y125.143 E1.15595
M73 P1 R37
G1 X93.992 Y94.857 E1.0935
G1 X126.008 Y94.857 E1.15595
G1 X126.008 Y125.103 E1.09206
G1 X126.465 Y125.6 F30000
;TYPE:Outer wall
G1 F3000
G1 X93.535 Y125.6 E1.18895
G1 X93.535 Y94.4 E1.12651
G1 X126.465 Y94.4 E1.18895
G1 X126.465 Y125.56 E1.12506
G1 E-.35 F2400
;WIPE_START
G1 F3000
G1 X125.465 Y125.561 E-.15
;WIPE_END
G1 X119.759 Y120.492 Z.6 F30000
G1 X114.267 Y115.614 Z.6
G1 Z.2
G1 E.5 F2400
;TYPE:Gap infill
;WIDTH:0.547342
G1 F3000
G2 X114.318 Y115.307 I-5.558 J-1.071 E.01239
;WIDTH:0.518662
G1 X114.335 Y115.151 E.00588
;WIDTH:0.484216
G1 X114.352 Y114.996 E.00546
;WIDTH:0.447482
G1 X114.371 Y114.819 E.00569
;WIDTH:0.416125
G1 X114.384 Y114.585 E.00689
;WIDTH:0.380904
G2 X114.397 Y113.848 I-12.896 J-.594 E.01968
;WIDTH:0.390368
G1 X114.384 Y113.615 E.00642
;WIDTH:0.417356
G2 X114.37 Y113.36 I-4.615 J.138 E.00755
;WIDTH:0.449771
G1 X114.352 Y113.204 E.00503
;WIDTH:0.484217
G1 X114.335 Y113.049 E.00546
;WIDTH:0.521816
G2 X114.314 Y112.866 I-3.317 J.288 E.00697
;WIDTH:0.543481
G1 X114.267 Y112.586 E.0112
G1 E-.35 F2400
;WIPE_START
G1 F3000
G1 X114.314 Y112.866 E-.15
;WIPE_END
G1 X110.701 Y110.1 Z.6 F30000
G1 Z.2
G1 E.5 F2400
;WIDTH:0.527668
G1 F3000
G1 X110.319 Y110.1 E.01464
;WIDTH:0.497859
G1 X109.877 Y110.1 E.01585
;WIDTH:0.502336
G1 X109.583 Y110.1 E.0107
;WIDTH:0.516335
G1 X109.288 Y110.1 E.01103
G1 E-.35 F2400
;WIPE_START
G1 F3000
G1 X109.583 Y110.1 E-.15
;WIPE_END
G1 X105.728 Y107.619 Z.6 F30000
G1 Z.2
G1 E.5 F2400
;WIDTH:0.519309
G1 F3000
G1 X105.692 Y107.353 E.01012
;WIDTH:0.500085
G1 X105.655 Y107.086 E.00971
;WIDTH:0.458262
G3 X105.633 Y106.829 I4.644 J-.527 E.00848
;WIDTH:0.417522
G1 X105.613 Y106.595 E.00693
;WIDTH:0.383198
G3 X105.612 Y105.624 I12.862 J-.5 E.02611
;WIDTH:0.41595
G3 X105.633 Y105.371 I4.603 J.244 E.00748
;WIDTH:0.456207
G1 X105.652 Y105.138 E.00765
;WIDTH:0.498283
G3 X105.692 Y104.847 I5.302 J.575 E.01054
;WIDTH:0.538533
G1 X105.728 Y104.581 E.01053
G1 E-.35 F2400
;WIPE_START
G1 F3000
G1 X105.692 Y104.847 E-.15
;WIPE_END
G1 X105.728 Y112.48 Z.6 F30000
G1 X105.728 Y112.581 Z.6
G1 Z.2
G1 E.5 F2400
;WIDTH:0.538532
G1 F3000
G1 X105.692 Y112.847 E.01053
;WIDTH:0.498283
G2 X105.652 Y113.138 I5.263 J.866 E.01054
;WIDTH:0.456207
G1 X105.633 Y113.371 E.00765
;WIDTH:0.41595
G2 X105.612 Y113.624 I4.582 J.497 E.00748
;WIDTH:0.383198
G2 X105.613 Y114.595 I12.863 J.471 E.02611
;WIDTH:0.417522
G1 X105.633 Y114.829 E.00693
;WIDTH:0.458262
G2 X105.655 Y115.086 I4.666 J-.269 E.00848
;WIDTH:0.500085
G1 X105.692 Y115.353 E.00971
;WIDTH:0.519309
G1 X105.728 Y115.619 E.01012
G1 E-.35 F2400
;WIPE_START
G1 F3000
G1 X105.692 Y115.353 E-.15
;WIPE_END
G1 X111.358 Y110.239 Z.6 F30000
G1 X114.267 Y107.614 Z.6
G1 Z.2
G1 E.5 F2400
;WIDTH:0.547342
G1 F3000
G2 X114.318 Y107.307 I-5.558 J-1.071 E.01239
;WIDTH:0.518662
G1 X114.335 Y107.151 E.00588
;WIDTH:0.484216
G1 X114.352 Y106.996 E.00546
;WIDTH:0.447482
G1 X114.371 Y106.819 E.00569
;WIDTH:0.416125
G1 X114.384 Y106.585 E.00689
;WIDTH:0.380904
G2 X114.397 Y105.848 I-12.896 J-.594 E.01968
;WIDTH:0.390368
G1 X114.384 Y105.615 E.00642
;WIDTH:0.417356
G2 X114.37 Y105.36 I-4.615 J.138 E.00755
;WIDTH:0.449771
G1 X114.352 Y105.204 E.00503
;WIDTH:0.484217
G1 X114.335 Y105.049 E.00546
;WIDTH:0.521816
G2 X114.314 Y104.866 I-3.317 J.288 E.00697
;WIDTH:0.543481
G1 X114.267 Y104.586 E.0112
G1 E-.35 F2400
;WIPE_START
G1 F3000
G1 X114.314 Y104.866 E-.15
;WIPE_END
G1 X108.911 Y110.257 Z.6 F30000
G1 X94.838 Y124.297 Z.6
G1 Z.2
G1 E.5 F2400
;TYPE:Bottom surface
;WIDTH:0.499999
G1 F6300
G1 X125.162 Y124.297 E1.09488
G1 X125.162 Y95.703 E1.03244
G1 X94.838 Y95.703 E1.09488
G1 X94.838 Y124.257 E1.03099
G1 X95.295 Y123.84 F30000
G1 F6300
G1 X124.705 Y123.84 E1.06188
G1 X124.705 Y96.16 E.99943
G1 X95.295 Y96.16 E1.06188
G1 X95.295 Y123.8 E.99799
G1 X95.752 Y123.383 F30000
G1 F6300
G1 X124.248 Y123.383 E1.02887
G1 X124.248 Y96.617 E.96642
G1 X95.752 Y96.617 E1.02887
G1 X95.752 Y123.343 E.96498
G1 E-.35 F2400
;WIPE_START
G1 F6300
G1 X95.752 Y122.343 E-.15
;WIPE_END
G1 X97.968 Y120.719 Z.6 F30000
G1 Z.2
G1 E.5 F2400
;WIDTH:0.361159
G1 F6300
G1 X97.968 Y121.167 E.01126
G1 X99.01 Y121.167 E.0262
G1 X98.199 Y120.866 E.02174
G1 X98.002 Y120.741 E.00588
G1 E-.35 F2400
;WIPE_START
G1 F6300
G1 X98.199 Y120.866 E-.03511
G1 X98.918 Y121.133 E-.11489
;WIPE_END
G1 X98.953 Y118.731 Z.6 F30000
G1 Z.2
G1 E.5 F2400
;WIDTH:0.499999
G1 F6300
G1 X98.714 Y118.503 E.01193
G1 X98.474 Y118.123 E.01623
G1 X98.362 Y117.738 E.01448
G1 X97.977 Y117.626 E.01448
G1 X97.483 Y117.279 E.02181
G1 X97.159 Y116.788 E.02122
G3 X97.033 Y116.167 I1.474 J-.621 E.02304
G1 X97.033 Y112.033 E.14927
G1 X97.175 Y111.373 E.02436
G1 X97.535 Y110.869 E.02237
G1 X97.775 Y110.683 E.01097
G1 X98.326 Y110.463 E.0214
G1 X98.363 Y110.426 E.00191
G1 X98.478 Y110.1 E.01246
G1 X98.326 Y109.737 E.01421
G1 X97.775 Y109.517 E.0214
G1 X97.535 Y109.331 E.01097
G1 X97.175 Y108.827 E.02237
G1 X97.057 Y108.443 E.01447
G1 X97.033 Y108.167 E.01002
G1 X97.033 Y104.033 E.14927
G1 X97.159 Y103.412 E.02289
G1 X97.483 Y102.921 E.02122
G1 X97.893 Y102.614 E.01851
G1 X98.298 Y102.469 E.01553
G1 X98.362 Y102.462 E.00232
G1 X98.474 Y102.077 E.01448
G1 X98.727 Y101.682 E.01694
G3 X99.657 Y101.157 I1.278 J1.179 E.03917
G1 X99.933 Y101.133 E.01002
G1 X104.067 Y101.133 E.14927
G1 X104.416 Y101.172 E.01268
G1 X104.926 Y101.383 E.01992
G1 X105.253 Y101.659 E.01545
G1 X105.537 Y102.101 E.01895
G1 X105.611 Y102.366 E.00997
G1 X106.266 Y101.705 E.03363
G3 X108.999 Y100.438 I3.64 J4.272 E.11009
G1 X109.519 Y100.361 E.019
G1 X110.346 Y100.346 E.02986
G3 X114.381 Y102.351 I-.339 J5.744 E.16716
G1 X114.594 Y101.857 E.01941
G1 X114.91 Y101.503 E.01715
G1 X115.261 Y101.281 E.01497
G1 X115.657 Y101.157 E.01498
G1 X115.933 Y101.133 E.01002
G1 X120.067 Y101.133 E.14927
G3 X121.273 Y101.682 I0 J1.6 E.04932
G1 X121.526 Y102.077 E.01694
G1 X121.638 Y102.462 E.01448
G1 X122.023 Y102.574 E.01448
G1 X122.517 Y102.921 E.02181
G1 X122.841 Y103.412 E.02122
G1 X122.967 Y104.033 E.02289
G1 X122.967 Y108.167 E.14927
G1 X122.943 Y108.443 E.01002
G1 X122.825 Y108.827 E.01447
G1 X122.465 Y109.331 E.02237
G1 X122.225 Y109.517 E.01097
G1 X121.674 Y109.737 E.0214
G1 X121.637 Y109.774 E.00191
G1 X121.522 Y110.1 E.01246
G1 X121.674 Y110.463 E.01421
G1 X122.225 Y110.683 E.0214
G1 X122.465 Y110.869 E.01097
G1 X122.825 Y111.373 E.02237
G1 X122.967 Y112.033 E.02436
G1 X122.967 Y116.167 E.14927
G3 X122.841 Y116.788 I-1.6 J0 E.02304
G1 X122.517 Y117.279 E.02122
G1 X122.107 Y117.586 E.01851
G1 X121.702 Y117.731 E.01553
G1 X121.638 Y117.738 E.00232
G1 X121.526 Y118.123 E.01448
G1 X121.286 Y118.503 E.01623
G3 X120.794 Y118.892 I-1.219 J-1.036 E.0228
G1 X120.343 Y119.043 E.01715
G1 X120.067 Y119.067 E.01002
G1 X115.933 Y119.067 E.14927
G1 X115.574 Y119.026 E.01303
G1 X115.052 Y118.802 E.02053
G1 X114.699 Y118.485 E.01715
G1 X114.418 Y117.982 E.02077
G1 X114.381 Y117.849 E.00499
G3 X105.611 Y117.834 I-4.379 J-3.744 E.35991
G1 X105.458 Y118.257 E.01626
G1 X105.128 Y118.665 E.01894
G1 X104.759 Y118.91 E.01598
G1 X104.343 Y119.043 E.01574
G1 X104.067 Y119.067 E.01002
G1 X99.933 Y119.067 E.14927
G3 X98.987 Y118.753 I.07 J-1.793 E.03648
G1 X99.233 Y118.37 F30000
G1 F6300
G1 X99.062 Y118.207 E.00852
G1 X98.855 Y117.847 E.01499
G3 X98.79 Y117.31 I1.537 J-.459 E.01964
G1 X98.394 Y117.284 E.01435
G1 X98.105 Y117.18 E.0111
G1 X97.811 Y116.961 E.01322
G1 X97.58 Y116.611 E.01516
G1 X97.49 Y116.167 E.01635
G1 X97.49 Y112.033 E.14927
G1 X97.592 Y111.562 E.0174
G1 X97.849 Y111.202 E.01598
G1 X98.02 Y111.068 E.00784
G1 X98.413 Y110.912 E.01529
G1 X98.79 Y110.89 E.01363
G1 X98.812 Y110.513 E.01363
G1 X98.977 Y110.107 E.01585
G1 X98.812 Y109.687 E.01631
G1 X98.79 Y109.31 E.01363
G1 X98.413 Y109.288 E.01363
G1 X98.02 Y109.132 E.01529
G1 X97.849 Y108.998 E.00784
G1 X97.592 Y108.638 E.01598
G1 X97.49 Y108.167 E.0174
G1 X97.49 Y104.033 E.14927
G1 X97.58 Y103.589 E.01635
G1 X97.811 Y103.239 E.01516
G1 X98.164 Y102.991 E.01558
G1 X98.394 Y102.916 E.00872
G1 X98.79 Y102.89 E.01435
G1 X98.816 Y102.494 E.01435
G3 X99.072 Y101.982 I1.117 J.239 E.02088
G1 X99.445 Y101.7 E.01692
G3 X99.933 Y101.59 I.488 J1.033 E.01819
G1 X104.067 Y101.59 E.14927
G1 X104.316 Y101.618 E.00906
G1 X104.68 Y101.769 E.01423
