; HEADER_BLOCK_START
; generated by Creality_Print V5.0.0.8636 on 2024-06-03 at 18:54:43
; total layer number: 88
; filament_density: 1.24
; filament_diameter: 1.75
; max_z_height: 7.16
; HEADER_BLOCK_END

; MINX = 98.07
; MINY = 91.80
; MINZ = 0.00
; MAXX = 121.93
; MAXY = 128.20
; MAXZ = 7.20

; THUMBNAIL_BLOCK_START

;
; THUMBNAIL_BLOCK_END

; THUMBNAIL_BLOCK_START

;
; THUMBNAIL_BLOCK_END

; external perimeters extrusion width = 0.42mm
; perimeters extrusion width = 0.45mm
; infill extrusion width = 0.45mm
; solid infill extrusion width = 0.42mm
; top infill extrusion width = 0.42mm
; first layer extrusion width = 0.50mm

; EXECUTABLE_BLOCK_START
M73 P0 R10
M106 S0
M106 P2 S0
;TYPE:Custom
M140 S0
M104 S0 
START_PRINT EXTRUDER_TEMP=220 BED_TEMP=50
G90
G21
M83 ; use relative distances for extrusion
; filament start gcode
M106 S0
M106 P2 S0
;LAYER_CHANGE
;Z:0.2
;HEIGHT:0.2
;BEFORE_LAYER_CHANGE
;0.2
G92 E0

G1 E-.5 F2400
;AFTER_LAYER_CHANGE
;0.2
;_SET_FAN_SPEED_CHANGING_LAYER
SET_VELOCITY_LIMIT ACCEL=500 ACCEL_TO_DECEL=250
G1 X96.631 Y93.972 F30000
G1 Z.4
G1 Z.2
G1 E.5 F2400
;TYPE:Skirt
;WIDTH:0.5
G1 F3000
G1 X97.565 Y93.343 E.04066
G1 X108.691 Y90.142 E.41802
G1 X109.447 Y90.002 E.02775
G1 X110.222 Y89.977 E.028
G1 X111.43 Y90.175 E.0442
G1 X122.436 Y93.343 E.41351
G1 X123.412 Y94.029 E.04307
G1 X123.758 Y95.1 E.04065
G1 X123.758 Y124.9 E1.07596
G1 X123.369 Y126.028 E.04307
G1 X122.436 Y126.657 E.04065
G1 X111.43 Y129.825 E.41351
G1 X110.746 Y129.973 E.02527
G1 X109.972 Y130.027 E.028
G1 X108.691 Y129.858 E.04667
G1 X97.565 Y126.657 E.41802
G1 X96.589 Y125.971 E.04307
G1 X96.242 Y124.9 E.04066
G1 X96.242 Y95.1 E1.07596
G1 X96.618 Y94.01 E.04162
G1 X97.066 Y94.192 F30000
G1 F3000
G1 X97.084 Y94.147 E.00174
G1 X97.691 Y93.782 E.02556
G1 X108.817 Y90.582 E.41802
G1 X109.507 Y90.456 E.02532
G1 X110.213 Y90.434 E.02551
G1 X111.304 Y90.614 E.0399
G1 X122.309 Y93.782 E.41351
G1 X123.119 Y94.416 E.03712
G1 X123.301 Y95.1 E.02555
G1 X123.301 Y124.9 E1.07596
G1 X122.916 Y125.853 E.03712
G1 X122.309 Y126.218 E.02555
G1 X111.304 Y129.386 E.41351
G1 X109.964 Y129.57 E.04884
G1 X108.817 Y129.418 E.04175
G1 X97.691 Y126.218 E.41802
G1 X96.881 Y125.584 E.03712
G1 X96.699 Y124.9 E.02556
G1 X96.699 Y95.1 E1.07596
G1 X97.051 Y94.229 E.03393
G1 X97.537 Y94.594 F30000
G1 F3000
G1 X97.817 Y94.221 E.01685
G1 X108.944 Y91.021 E.41802
G1 X110.205 Y90.891 E.04577
G1 X111.177 Y91.054 E.0356
G1 X122.183 Y94.222 E.41351
M73 P1 R10
G1 X122.844 Y95.1 E.0397
G1 X122.844 Y124.9 E1.07596
G1 X122.183 Y125.778 E.0397
G1 X111.177 Y128.946 E.41351
G1 X109.955 Y129.113 E.04454
G1 X108.944 Y128.979 E.03683
G1 X97.817 Y125.779 E.41802
G1 X97.156 Y124.9 E.03971
G1 X97.156 Y95.1 E1.07596
G1 X97.513 Y94.626 E.02141
G1 X97.804 Y94.846 F30000
G1 F3000
G1 X97.944 Y94.661 E.00837
G1 X109.07 Y91.46 E.41802
G1 X110.196 Y91.348 E.04085
G1 X111.051 Y91.493 E.0313
G1 X122.056 Y94.661 E.41351
G1 X122.387 Y95.1 E.01985
G1 X122.387 Y124.9 E1.07596
G1 X122.056 Y125.339 E.01985
G1 X111.051 Y128.507 E.41351
G1 X109.946 Y128.656 E.04024
G1 X109.07 Y128.54 E.03192
G1 X97.944 Y125.339 E.41802
G1 X97.613 Y124.9 E.01985
G1 X97.613 Y95.1 E1.07596
G1 X97.78 Y94.878 E.01004
; printing object 2024-06_03_17_26 Raspicam Holder.stl id:0 copy 0
G1 E-.35 F2400
;WIPE_START
G1 F3000
G1 X97.944 Y94.661 E-.04075
G1 X98.644 Y94.459 E-.10925
;WIPE_END
G1 X100.932 Y101.741 Z.6 F30000
G1 X108.713 Y126.496 Z.6
G1 Z.2
G1 E.5 F2400
;TYPE:Outer wall
G1 F3000
G1 X108.499 Y126.291 E.01069
G3 X109.544 Y122.9 I1.501 J-1.394 E.15492
G1 X109.847 Y122.855 E.01107
G3 X108.746 Y126.517 I.153 J2.043 E.28657
G1 E-.35 F2400
;WIPE_START
G1 F3000
G1 X108.499 Y126.291 E-.05024
G1 X108.298 Y126.044 E-.04776
G1 X108.152 Y125.79 E-.04392
G1 X108.132 Y125.74 E-.00808
;WIPE_END
G1 X109.203 Y118.183 Z.6 F30000
G1 X112.352 Y95.957 Z.6
G1 Z.2
G1 E.5 F2400
;TYPE:Inner wall
G1 F3000
G1 X121.073 Y95.957 E.31488
G1 X121.073 Y124.043 E1.01407
M73 P2 R10
G1 X112.352 Y124.043 E.31488
G2 X107.648 Y124.043 I-2.352 J.858 E.22073
G1 X98.927 Y124.043 E.31488
G1 X98.927 Y95.957 E1.01407
G1 X107.648 Y95.957 E.31488
G1 X107.739 Y96.189 E.00899
G2 X112.338 Y95.995 I2.258 J-1.087 E.21067
G1 X111.956 Y94.485 F30000
;TYPE:Outer wall
G1 F3000
G1 X111.958 Y94.496 E.00042
G3 X109.544 Y93.1 I-1.958 J.601 E.35392
G1 X109.847 Y93.055 E.01107
G3 X111.846 Y94.211 I.153 J2.043 E.0886
G1 X111.941 Y94.447 E.0092
G1 E-.35 F2400
;WIPE_START
G1 F3000
G1 X111.958 Y94.496 E-.00772
G1 X112.028 Y94.794 E-.04596
G1 X112.051 Y95.1 E-.04598
G1 X112.028 Y95.406 E-.04598
G1 X112.022 Y95.434 E-.00435
;WIPE_END
G1 X110.748 Y102.959 Z.6 F30000
G1 X107.102 Y124.5 Z.6
G1 Z.2
G1 E.5 F2400
G1 F3000
G1 X98.47 Y124.5 E.31168
G1 X98.47 Y95.5 E1.04707
G1 X107.102 Y95.5 E.31168
G3 X107.444 Y93.73 I3.433 J-.255 E.06585
G3 X110.165 Y92.205 I2.562 J1.382 E.11883
G3 X112.891 Y94.881 I-.17 J2.901 E.15052
G1 X112.915 Y95.5 E.02238
G1 X121.53 Y95.5 E.31106
G1 X121.53 Y124.5 E1.04707
G1 X112.915 Y124.5 E.31106
G3 X112.768 Y125.765 I-4.538 J.113 E.04612
G3 X107.102 Y125.01 I-2.767 J-.867 E.29311
G1 X107.102 Y124.54 E.01696
G1 X107.568 Y124.271 F30000
;TYPE:Gap infill
;WIDTH:0.438587
G1 F3000
G2 X107.82 Y126.067 I2.841 J.517 E.05764
G2 X112.476 Y124.885 I2.181 J-1.17 E.2053
G2 X112.467 Y124.512 I-4.98 J-.079 E.01169
;WIDTH:0.479115
G1 X112.445 Y124.271 E.00831
G1 E-.35 F2400
;WIPE_START
G1 F3000
G1 X112.467 Y124.512 E-.15
;WIPE_END
G1 X110.932 Y117.035 Z.6 F30000
G1 X109.8 Y111.524 Z.6
M73 P3 R10
G1 Z.2
G1 E.5 F2400
;TYPE:Bottom surface
;WIDTH:0.443045
G1 F6300
G1 X110.2 Y111.524 E.01261
G2 X110.2 Y108.476 I-528.251 J-1.524 E.09635
G1 X109.8 Y108.476 E.01261
G2 X109.8 Y111.484 I527.796 J1.523 E.09508
G1 X109.371 Y111.969 F30000
;WIDTH:0.499999
G1 F6300
G3 X110.629 Y111.969 I.629 J12.743 E.04542
G1 X110.629 Y108.031 E.14217
G3 X109.371 Y108.031 I-.629 J-12.743 E.04542
G1 X109.371 Y111.929 E.14073
G1 X108.914 Y112.456 F30000
G1 F6300
G3 X111.086 Y112.456 I1.086 J16.164 E.07846
G1 X111.086 Y107.544 E.17733
G3 X108.914 Y107.544 I-1.086 J-16.164 E.07846
G1 X108.914 Y112.416 E.17589
G1 X108.457 Y112.966 F30000
G1 F6300
G3 X110.875 Y112.892 I1.601 J12.722 E.08749
G1 X111.543 Y112.966 E.02424
G1 X111.543 Y107.034 E.21419
G3 X109.125 Y107.108 I-1.601 J-12.721 E.08749
G1 X108.457 Y107.034 E.02424
G1 X108.457 Y112.926 E.21275
G1 X108 Y113.498 F30000
G1 F6300
G1 X109.158 Y113.348 E.04214
G3 X112 Y113.498 I.77 J12.395 E.103
G1 X112 Y106.502 E.2526
G1 X110.842 Y106.652 E.04214
G3 X108 Y106.502 I-.77 J-12.395 E.103
G1 X108 Y113.458 E.25116
G1 X108.146 Y113.936 F30000
G1 F6300
G1 X109.19 Y113.804 E.03802
G3 X112.457 Y114.049 I.74 J12.026 E.11864
G1 X112.457 Y105.951 E.29237
G3 X107.543 Y105.951 I-2.457 J-11.215 E.17881
G1 X107.543 Y114.049 E.29237
G1 X108.106 Y113.943 E.0207
G1 X108.214 Y114.387 F30000
G1 F6300
G1 X109.223 Y114.26 E.03675
G3 X112.914 Y114.643 I.73 J10.916 E.13462
G1 X112.914 Y105.357 E.33531
G3 X110.777 Y105.74 I-3.055 J-10.869 E.07853
G3 X107.086 Y105.357 I-.73 J-10.916 E.13462
G1 X107.086 Y114.643 E.33531
G3 X108.174 Y114.395 I2.203 J7.138 E.04035
G1 X108.282 Y114.839 F30000
G1 F6300
G1 X109.256 Y114.715 E.03547
G3 X112.817 Y115.09 I.699 J10.46 E.12991
G1 X113.371 Y115.276 E.02109
G1 X113.371 Y104.724 E.38097
G3 X110.2 Y105.304 I-3.344 J-9.323 E.11693
G1 X109.256 Y105.285 E.03406
G3 X106.629 Y104.724 I.887 J-10.6 E.09726
G1 X106.629 Y115.276 E.38097
G3 X108.243 Y114.847 I3.206 J8.811 E.06037
G1 X108.35 Y115.291 F30000
G1 F6300
G1 X109.289 Y115.171 E.03419
G3 X112.682 Y115.527 I.668 J9.984 E.12378
G1 X113.828 Y115.945 E.04403
G1 X113.828 Y104.055 E.42928
G1 X113.064 Y104.355 E.02965
G1 X112.155 Y104.614 E.0341
G3 X107.318 Y104.473 I-2.141 J-9.622 E.17654
G1 X106.172 Y104.055 E.04403
G1 X106.172 Y115.945 E.42928
G1 X106.936 Y115.645 E.02965
G1 X107.845 Y115.386 E.0341
G1 X108.311 Y115.299 E.01712
G1 X108.813 Y115.684 F30000
G1 F6300
G3 X110.678 Y115.627 I1.264 J10.863 E.06745
G3 X112.548 Y115.964 I-.889 J10.3 E.0687
G1 X113.851 Y116.443 E.05014
G1 X114.285 Y116.66 E.01752
G1 X114.285 Y103.34 E.4809
G1 X113.851 Y103.557 E.01752
G1 X112.929 Y103.919 E.03576
G1 X112.054 Y104.168 E.03283
G3 X107.452 Y104.036 I-2.037 J-9.303 E.1679
G1 X106.149 Y103.557 E.05014
G1 X105.715 Y103.34 E.01751
G1 X105.715 Y116.66 E.4809
G1 X106.149 Y116.443 E.01752
G1 X107.071 Y116.081 E.03576
G1 X107.946 Y115.832 E.03283
G1 X108.773 Y115.691 E.03032
G1 X108.881 Y116.136 F30000
G1 F6300
G3 X111.514 Y116.195 I1.103 J9.489 E.09539
G1 X112.413 Y116.401 E.0333
G1 X113.653 Y116.855 E.04768
G1 X114.742 Y117.45 E.04482
M73 P4 R10
G1 X114.742 Y102.55 E.53797
G1 X114.012 Y102.972 E.03044
G1 X112.794 Y103.482 E.04768
G1 X111.954 Y103.722 E.03156
G3 X107.587 Y103.599 I-1.937 J-8.847 E.1593
G1 X106.347 Y103.145 E.04768
G1 X105.258 Y102.55 E.04482
G1 X105.258 Y117.45 E.53797
G1 X105.988 Y117.028 E.03044
G1 X107.206 Y116.518 E.04768
G1 X108.046 Y116.278 E.03156
G1 X108.841 Y116.143 E.02912
G1 X108.949 Y116.588 F30000
G1 F6300
G3 X112.278 Y116.837 I1.051 J8.312 E.12136
G1 X113.454 Y117.267 E.04521
G1 X114.553 Y117.867 E.04521
G1 X114.989 Y118.169 E.01915
G1 X115.199 Y118.169 E.00759
G1 X115.199 Y101.831 E.58993
G1 X114.954 Y101.859 E.00892
G1 X113.814 Y102.56 E.04833
G1 X112.66 Y103.045 E.04521
G3 X107.722 Y103.163 I-2.66 J-7.945 E.18102
G1 X106.546 Y102.733 E.04521
G1 X105.447 Y102.133 E.04521
G1 X105.011 Y101.831 E.01915
G1 X104.801 Y101.831 E.00759
G1 X104.801 Y118.169 E.58993
G1 X105.046 Y118.141 E.00892
G1 X106.186 Y117.44 E.04833
G1 X107.34 Y116.955 E.04521
G1 X108.147 Y116.724 E.03029
G1 X108.91 Y116.595 E.02793
G1 X109.017 Y117.04 F30000
G1 F6300
G3 X112.144 Y117.274 I.983 J7.86 E.11395
G1 X113.256 Y117.679 E.04275
G1 X114.296 Y118.245 E.04275
G1 X114.829 Y118.627 E.02367
G1 X115.657 Y118.627 E.02988
G1 X115.657 Y101.373 E.62294
G1 X114.829 Y101.373 E.02988
G3 X113.616 Y102.148 I-4.546 J-5.783 E.05206
G1 X112.525 Y102.608 E.04275
G3 X107.857 Y102.726 I-2.525 J-7.508 E.17115
G1 X106.744 Y102.321 E.04275
G1 X105.704 Y101.755 E.04274
G1 X105.171 Y101.373 E.02367
G1 X104.343 Y101.373 E.02988
G1 X104.343 Y118.627 E.62294
G1 X105.171 Y118.627 E.02988
G3 X106.384 Y117.852 I4.546 J5.784 E.05206
G1 X107.475 Y117.392 E.04275
G3 X108.978 Y117.047 I2.28 J6.478 E.05578
G1 X109.085 Y117.492 F30000
G1 F6300
G3 X112.009 Y117.711 I.915 J7.408 E.10655
G1 X113.058 Y118.091 E.04028
G1 X114.039 Y118.622 E.04028
G1 X114.669 Y119.084 E.0282
G1 X116.114 Y119.084 E.05217
G1 X116.114 Y100.916 E.65595
G1 X114.669 Y100.916 E.05217
G3 X113.417 Y101.736 I-4.401 J-5.352 E.05412
G1 X112.39 Y102.171 E.04028
G3 X107.991 Y102.289 I-2.39 J-7.072 E.16128
G1 X106.942 Y101.909 E.04028
G1 X105.962 Y101.378 E.04028
G1 X105.331 Y100.916 E.0282
G1 X103.886 Y100.916 E.05217
G1 X103.886 Y119.084 E.65595
G1 X105.331 Y119.084 E.05217
G3 X106.583 Y118.264 I4.401 J5.352 E.05412
G1 X107.61 Y117.829 E.04028
G3 X109.046 Y117.498 I2.157 J6.095 E.05331
G1 X109.153 Y117.944 F30000
G1 F6300
G3 X111.874 Y118.148 I.847 J6.956 E.09914
G1 X112.859 Y118.502 E.03781
G1 X113.781 Y119 E.03781
G1 X114.509 Y119.541 E.03273
G1 X116.571 Y119.541 E.07446
G1 X116.571 Y100.459 E.68895
G1 X114.509 Y100.459 E.07446
G1 X114.111 Y100.775 E.01834
G1 X113.219 Y101.324 E.03782
G1 X112.255 Y101.735 E.03781
G3 X108.126 Y101.852 I-2.255 J-6.635 E.1514
G1 X107.141 Y101.498 E.03782
G1 X106.219 Y101 E.03781
G1 X105.491 Y100.459 E.03273
G1 X103.429 Y100.459 E.07446
G1 X103.429 Y119.541 E.68895
G1 X105.491 Y119.541 E.07446
G1 X105.889 Y119.225 E.01834
G1 X106.781 Y118.676 E.03782
G1 X107.745 Y118.265 E.03781
G3 X109.114 Y117.95 I2.036 J5.716 E.05084
G1 X109.221 Y118.396 F30000
G1 F6300
G3 X111.739 Y118.584 I.779 J6.504 E.09174
G1 X112.661 Y118.914 E.03535
G1 X113.524 Y119.378 E.03535
G1 X114.307 Y119.965 E.03535
G1 X114.392 Y119.998 E.00328
G1 X117.028 Y119.998 E.09517
G1 X117.028 Y100.002 E.72196
M73 P5 R10
G1 X114.343 Y100.002 E.09693
G1 X113.902 Y100.364 E.02061
G1 X113.021 Y100.913 E.03747
G1 X112.121 Y101.298 E.03535
G3 X108.261 Y101.416 I-2.121 J-6.198 E.14153
G1 X107.339 Y101.086 E.03535
G1 X106.476 Y100.622 E.03535
G1 X105.693 Y100.035 E.03535
G1 X105.608 Y100.002 E.00328
G1 X102.972 Y100.002 E.09517
G1 X102.972 Y119.998 E.72196
G1 X105.657 Y119.998 E.09693
G1 X106.098 Y119.636 E.02061
G1 X106.979 Y119.087 E.03747
G1 X107.879 Y118.702 E.03535
G3 X109.182 Y118.402 I1.915 J5.34 E.04837
G1 X109.29 Y118.848 F30000
G1 F6300
G3 X111.605 Y119.021 I.71 J6.052 E.08434
G1 X112.463 Y119.326 E.03288
G1 X113.266 Y119.755 E.03288
G1 X113.996 Y120.3 E.03289
G1 X114.164 Y120.455 E.00824
G1 X117.485 Y120.455 E.11991
G1 X117.485 Y99.545 E.75496
G1 X114.164 Y99.545 E.11991
G1 X113.638 Y99.99 E.02486
G1 X112.822 Y100.501 E.03475
G1 X111.986 Y100.861 E.03288
G3 X108.395 Y100.979 I-1.986 J-5.761 E.13166
G1 X107.537 Y100.674 E.03288
G1 X106.734 Y100.245 E.03288
G1 X106.004 Y99.7 E.03289
G1 X105.836 Y99.545 E.00824
G1 X102.515 Y99.545 E.11991
G1 X102.515 Y120.455 E.75496
G1 X105.836 Y120.455 E.11991
G1 X106.362 Y120.01 E.02486
G1 X107.178 Y119.499 E.03475
G1 X108.014 Y119.139 E.03288
G3 X109.25 Y118.854 I1.795 J4.968 E.0459
G1 X109.358 Y119.3 F30000
G1 F6300
G3 X111.851 Y119.576 I.621 J5.791 E.09129
G1 X112.624 Y119.911 E.03042
G1 X113.338 Y120.358 E.03042
G1 X113.978 Y120.906 E.03042
G2 X117.942 Y120.912 I2.515 J-363.01 E.14312
G1 X117.942 Y99.088 E.78797
G1 X113.983 Y99.088 E.14293
G1 X113.375 Y99.617 E.02909
G1 X112.624 Y100.089 E.03204
G1 X111.851 Y100.424 E.03042
G3 X108.149 Y100.424 I-1.851 J-5.324 E.1362
G1 X107.376 Y100.089 E.03042
G1 X106.662 Y99.642 E.03042
G1 X106.022 Y99.094 E.03042
G2 X102.058 Y99.088 I-2.515 J363.009 E.14312
G1 X102.058 Y120.912 E.78797
G1 X106.017 Y120.912 E.14293
G1 X106.625 Y120.383 E.02909
G1 X107.376 Y119.911 E.03204
G1 X108.149 Y119.576 E.03042
G3 X109.318 Y119.306 I1.676 J4.601 E.04344
G1 X109.426 Y119.752 F30000
G1 F6300
G3 X113.667 Y121.241 I.544 J5.235 E.16769
G1 X113.786 Y121.369 E.0063
G1 X118.399 Y121.369 E.16657
G1 X118.399 Y98.631 E.82098
G1 X113.786 Y98.631 E.16657
G1 X113.375 Y99.03 E.02069
G1 X112.751 Y99.489 E.02795
G1 X112.066 Y99.85 E.02796
G1 X111.335 Y100.105 E.02795
G1 X110.574 Y100.248 E.02796
G3 X106.333 Y98.759 I-.544 J-5.235 E.16769
G1 X106.214 Y98.631 E.0063
G1 X101.601 Y98.631 E.16657
G1 X101.601 Y121.369 E.82098
G1 X106.214 Y121.369 E.16657
G1 X106.625 Y120.97 E.02069
G1 X107.249 Y120.511 E.02795
G1 X107.934 Y120.15 E.02795
G1 X108.665 Y119.895 E.02795
G1 X109.386 Y119.759 E.02651
G1 X109.494 Y120.204 F30000
G1 F6300
G3 X113.356 Y121.576 I.483 J4.761 E.15294
G1 X113.616 Y121.826 E.01302
G1 X118.856 Y121.826 E.18919
G1 X118.856 Y98.174 E.85398
M73 P6 R10
G1 X113.585 Y98.174 E.19032
G1 X113.064 Y98.695 E.02661
G1 X112.494 Y99.112 E.02549
G1 X111.868 Y99.439 E.02549
G1 X111.2 Y99.668 E.02549
G1 X110.506 Y99.796 E.02549
G3 X106.644 Y98.424 I-.483 J-4.761 E.15294
G1 X106.384 Y98.174 E.01302
G1 X101.144 Y98.174 E.18919
G1 X101.144 Y121.826 E.85398
G1 X106.415 Y121.826 E.19032
G1 X106.936 Y121.305 E.02661
G1 X107.506 Y120.888 E.02549
G1 X108.132 Y120.561 E.02549
G1 X108.8 Y120.332 E.02549
G1 X109.455 Y120.211 E.02405
G1 X109.562 Y120.656 F30000
G1 F6300
G3 X113.365 Y122.283 I.403 J4.315 E.15569
G1 X119.313 Y122.283 E.21477
G1 X119.313 Y97.717 E.88699
G1 X113.365 Y97.717 E.21477
G3 X112.029 Y98.854 I-3.647 J-2.932 E.0637
G3 X106.635 Y97.717 I-2.027 J-3.748 E.21644
G1 X100.687 Y97.717 E.21477
G1 X100.687 Y122.283 E.88699
M73 P6 R9
G1 X106.635 Y122.283 E.21477
G3 X107.971 Y121.146 I3.647 J2.932 E.0637
G3 X109.523 Y120.662 I2.121 J4.066 E.059
G1 X109.8 Y121.095 F30000
G1 F6300
G3 X113.136 Y122.74 I.164 J3.872 E.14008
G1 X119.77 Y122.74 E.23952
G1 X119.77 Y97.26 E.92
G1 X113.136 Y97.26 E.23952
G1 X112.734 Y97.754 E.02299
G3 X106.864 Y97.26 I-2.733 J-2.652 E.24321
G1 X100.23 Y97.26 E.23952
G1 X100.23 Y122.74 E.92
G1 X106.864 Y122.74 E.23952
G1 X107.266 Y122.246 E.02299
G3 X109.761 Y121.1 I2.79 J2.785 E.10127
G1 X109.8 Y121.552 F30000
G1 F6300
G3 X112.876 Y123.197 I.2 J3.323 E.13255
G1 X120.227 Y123.197 E.26543
G1 X120.227 Y96.803 E.953
G1 X112.876 Y96.803 E.26543
G1 X112.742 Y97.032 E.00957
G3 X107.124 Y96.803 I-2.735 J-1.926 E.24108
